static/img/kroki/b494c878bbf5e3404ca4598850455af8.svg

<?xml version="1.0" encoding="us-ascii" standalone="no"?><svg xmlns="http://www.w3.org/2000/svg" xmlns:xlink="http://www.w3.org/1999/xlink" contentStyleType="text/css" height="645px" preserveAspectRatio="none" style="width:373px;height:645px;" version="1.1" viewBox="0 0 373 645" width="373px" zoomAndPan="magnify"><defs/><g><!--class region--><g id="elem_region"><rect codeLine="22" fill="#3D176E" height="39.7891" id="region" rx="2.5" ry="2.5" style="stroke:#000D19;stroke-width:0.5;" width="95" x="205" y="438.76"/><ellipse cx="220" cy="458.6545" fill="#ADD1B2" rx="11" ry="11" style="stroke:#181818;stroke-width:1.0;"/><path d="M222.9688,464.2952 Q222.3906,464.592 221.75,464.7327 Q221.1094,464.8889 220.4063,464.8889 Q217.9063,464.8889 216.5781,463.2483 Q215.2656,461.592 215.2656,458.467 Q215.2656,455.342 216.5781,453.6858 Q217.9063,452.0295 220.4063,452.0295 Q221.1094,452.0295 221.75,452.1858 Q222.4063,452.342 222.9688,452.6389 L222.9688,455.3577 Q222.3438,454.7795 221.75,454.5139 Q221.1563,454.2327 220.5313,454.2327 Q219.1875,454.2327 218.5,455.3108 Q217.8125,456.3733 217.8125,458.467 Q217.8125,460.5608 218.5,461.6389 Q219.1875,462.7014 220.5313,462.7014 Q221.1563,462.7014 221.75,462.4358 Q222.3438,462.1545 222.9688,461.5764 L222.9688,464.2952 Z " fill="#000000"/><text fill="#D9B8FF" font-family="Helvetica" font-size="17" lengthAdjust="spacing" textLength="53" x="239" y="464.5398">region</text></g><!--class resource--><g id="elem_resource"><rect codeLine="24" fill="#3D176E" height="310.7578" id="resource" rx="2.5" ry="2.5" style="stroke:#000D19;stroke-width:0.5;" width="227" x="139" y="7"/><ellipse cx="207.75" cy="26.8945" fill="#ADD1B2" rx="11" ry="11" style="stroke:#181818;stroke-width:1.0;"/><path d="M210.7188,32.5352 Q210.1406,32.832 209.5,32.9727 Q208.8594,33.1289 208.1563,33.1289 Q205.6563,33.1289 204.3281,31.4883 Q203.0156,29.832 203.0156,26.707 Q203.0156,23.582 204.3281,21.9258 Q205.6563,20.2695 208.1563,20.2695 Q208.8594,20.2695 209.5,20.4258 Q210.1563,20.582 210.7188,20.8789 L210.7188,23.5977 Q210.0938,23.0195 209.5,22.7539 Q208.9063,22.4727 208.2813,22.4727 Q206.9375,22.4727 206.25,23.5508 Q205.5625,24.6133 205.5625,26.707 Q205.5625,28.8008 206.25,29.8789 Q206.9375,30.9414 208.2813,30.9414 Q208.9063,30.9414 209.5,30.6758 Q210.0938,30.3945 210.7188,29.8164 L210.7188,32.5352 Z " fill="#000000"/><text fill="#D9B8FF" font-family="Helvetica" font-size="17" lengthAdjust="spacing" textLength="71" x="233.25" y="32.7798">resource</text><line style="stroke:#000D19;stroke-width:0.5;" x1="140" x2="365" y1="46.7891" y2="46.7891"/><text fill="#D9B8FF" font-family="sans-serif" font-size="14" font-weight="bold" lengthAdjust="spacing" textLength="29" x="150" y="68.7842">age</text><text fill="#D9B8FF" font-family="sans-serif" font-size="14" lengthAdjust="spacing" textLength="66" x="179" y="68.7842">: duration</text><text fill="#D9B8FF" font-family="sans-serif" font-size="14" font-weight="bold" lengthAdjust="spacing" textLength="43" x="150" y="95.0811">atime</text><text fill="#D9B8FF" font-family="sans-serif" font-size="14" lengthAdjust="spacing" textLength="70" x="193" y="95.0811">: datetime</text><text fill="#D9B8FF" font-family="sans-serif" font-size="14" font-weight="bold" lengthAdjust="spacing" textLength="43" x="150" y="121.3779">ctime</text><text fill="#D9B8FF" font-family="sans-serif" font-size="14" lengthAdjust="spacing" textLength="70" x="193" y="121.3779">: datetime</text><text fill="#D9B8FF" font-family="sans-serif" font-size="14" font-weight="bold" lengthAdjust="spacing" textLength="14" x="150" y="147.6748">id</text><text fill="#D9B8FF" font-family="sans-serif" font-size="14" lengthAdjust="spacing" textLength="48" x="164" y="147.6748">: string</text><text fill="#D9B8FF" font-family="sans-serif" font-size="14" font-weight="bold" lengthAdjust="spacing" textLength="33" x="150" y="173.9717">kind</text><text fill="#D9B8FF" font-family="sans-serif" font-size="14" lengthAdjust="spacing" textLength="48" x="183" y="173.9717">: string</text><text fill="#D9B8FF" font-family="sans-serif" font-size="14" font-weight="bold" lengthAdjust="spacing" textLength="90" x="150" y="200.2686">last_access</text><text fill="#D9B8FF" font-family="sans-serif" font-size="14" lengthAdjust="spacing" textLength="66" x="240" y="200.2686">: duration</text><text fill="#D9B8FF" font-family="sans-serif" font-size="14" font-weight="bold" lengthAdjust="spacing" textLength="90" x="150" y="226.5654">last_update</text><text fill="#D9B8FF" font-family="sans-serif" font-size="14" lengthAdjust="spacing" textLength="66" x="240" y="226.5654">: duration</text><text fill="#D9B8FF" font-family="sans-serif" font-size="14" font-weight="bold" lengthAdjust="spacing" textLength="48" x="150" y="252.8623">mtime</text><text fill="#D9B8FF" font-family="sans-serif" font-size="14" lengthAdjust="spacing" textLength="70" x="198" y="252.8623">: datetime</text><text fill="#D9B8FF" font-family="sans-serif" font-size="14" font-weight="bold" lengthAdjust="spacing" textLength="43" x="150" y="279.1592">name</text><text fill="#D9B8FF" font-family="sans-serif" font-size="14" lengthAdjust="spacing" textLength="48" x="193" y="279.1592">: string</text><text fill="#D9B8FF" font-family="sans-serif" font-size="14" font-weight="bold" lengthAdjust="spacing" textLength="34" x="150" y="305.4561">tags</text><text fill="#D9B8FF" font-family="sans-serif" font-size="14" lengthAdjust="spacing" textLength="171" x="184" y="305.4561">: dictionary[string, string]</text></g><!--class slack_region--><g id="elem_slack_region"><rect codeLine="36" fill="#3D176E" height="39.7891" id="slack_region" rx="2.5" ry="2.5" style="stroke:#000D19;stroke-width:0.5;" width="145" x="51" y="599.55"/><ellipse cx="66" cy="619.4445" fill="#ADD1B2" rx="11" ry="11" style="stroke:#181818;stroke-width:1.0;"/><path d="M68.9688,625.0852 Q68.3906,625.382 67.75,625.5227 Q67.1094,625.6789 66.4063,625.6789 Q63.9063,625.6789 62.5781,624.0383 Q61.2656,622.382 61.2656,619.257 Q61.2656,616.132 62.5781,614.4758 Q63.9063,612.8195 66.4063,612.8195 Q67.1094,612.8195 67.75,612.9758 Q68.4063,613.132 68.9688,613.4289 L68.9688,616.1477 Q68.3438,615.5695 67.75,615.3039 Q67.1563,615.0227 66.5313,615.0227 Q65.1875,615.0227 64.5,616.1008 Q63.8125,617.1633 63.8125,619.257 Q63.8125,621.3508 64.5,622.4289 Q65.1875,623.4914 66.5313,623.4914 Q67.1563,623.4914 67.75,623.2258 Q68.3438,622.9445 68.9688,622.3664 L68.9688,625.0852 Z " fill="#000000"/><text fill="#D9B8FF" font-family="Helvetica" font-size="17" lengthAdjust="spacing" textLength="103" x="85" y="625.3298">slack_region</text></g><!--class slack_resource--><g id="elem_slack_resource"><rect codeLine="38" fill="#3D176E" height="39.7891" id="slack_resource" rx="2.5" ry="2.5" style="stroke:#000D19;stroke-width:0.5;" width="163" x="7" y="438.76"/><ellipse cx="22" cy="458.6545" fill="#ADD1B2" rx="11" ry="11" style="stroke:#181818;stroke-width:1.0;"/><path d="M24.9688,464.2952 Q24.3906,464.592 23.75,464.7327 Q23.1094,464.8889 22.4063,464.8889 Q19.9063,464.8889 18.5781,463.2483 Q17.2656,461.592 17.2656,458.467 Q17.2656,455.342 18.5781,453.6858 Q19.9063,452.0295 22.4063,452.0295 Q23.1094,452.0295 23.75,452.1858 Q24.4063,452.342 24.9688,452.6389 L24.9688,455.3577 Q24.3438,454.7795 23.75,454.5139 Q23.1563,454.2327 22.5313,454.2327 Q21.1875,454.2327 20.5,455.3108 Q19.8125,456.3733 19.8125,458.467 Q19.8125,460.5608 20.5,461.6389 Q21.1875,462.7014 22.5313,462.7014 Q23.1563,462.7014 23.75,462.4358 Q24.3438,462.1545 24.9688,461.5764 L24.9688,464.2952 Z " fill="#000000"/><text fill="#D9B8FF" font-family="Helvetica" font-size="17" lengthAdjust="spacing" textLength="121" x="41" y="464.5398">slack_resource</text></g><!--reverse link resource to region--><g id="link_resource_region"><path codeLine="40" d="M252.5,338.65 C252.5,379.33 252.5,417.03 252.5,438.68 " fill="none" id="resource-backto-region" style="stroke:#FFAF37;stroke-width:2.0;"/><polygon fill="none" points="245.5,338.85,252.5,318.85,259.5,338.85,245.5,338.85" style="stroke:#FFAF37;stroke-width:2.0;"/></g><!--reverse link region to slack_region--><g id="link_region_slack_region"><path codeLine="41" d="M223.78,495.01 C197.65,527.17 160.07,573.44 139.12,599.22 " fill="none" id="region-backto-slack_region" style="stroke:#FFAF37;stroke-width:2.0;"/><polygon fill="none" points="218.9,490.92,236.94,479.81,229.76,499.75,218.9,490.92" style="stroke:#FFAF37;stroke-width:2.0;"/></g><!--reverse link slack_resource to slack_region--><g id="link_slack_resource_slack_region"><path codeLine="42" d="M97.19,499.1 C104.22,530.99 113.82,574.51 119.26,599.22 " fill="none" id="slack_resource-backto-slack_region" style="stroke:#FFAF37;stroke-width:2.0;"/><polygon fill="none" points="90.19,500.85,92.72,479.81,103.86,497.83,90.19,500.85" style="stroke:#FFAF37;stroke-width:2.0;"/></g><!--SRC=[XPBDRi8m48JlUGfBtA8YGL4BLBrGfAgzeAhqLbLeiJV18h6ZjLD4Mzwz3WcHIVYvsJEVTsTNNac13DFCRbcAwHB916OjLGO4APiGwSrK9vfO9ueW6WoRvhDMzYemWnJP2oRVQ2M79l6nadojq1XswrbFmDSnwLo9ihmbKCPPgAn7JHCmPc8joMLkqGiZnijH53N9Pj7EGFI7zzZ2D0ca2kdrUg8_RY9NMrsSkoRcyWTPtr_QJ5jinMors5CNKnQ45x8rwC4_c_4DX90gPdUUzbvc8eLqfCzN8FIce2D8ZD_6M2JKTflXj3KLZaSY6fw4Ny_1lDWS8uobLkmtsDM2qJbnT58OGenX-C14Jc0TLYXMfgK65ekpq_W9JOf2CEuxgTXTNR1ZmVMo2-3SVTP6XxsJPqMjXfEUwAEWbEh25kAoekJ5Cw3jP-dTLCnNFQf9t6eMhGqSv7eFkw2-FFvrkzrgQK7rijJyOa6ZH9lu1m00]--></g></svg>

<svg xmlns="http://www.w3.org/2000/svg" width="373" height="645" preserveAspectRatio="none" style="width:373px;height:645px"><rect width="95" height="39.789" x="205" y="438.76" fill="#3D176E" rx="2.5" ry="2.5" style="stroke:#000d19;stroke-width:.5"/><circle cx="220" cy="458.654" r="11" fill="#ADD1B2" style="stroke:#181818;stroke-width:1"/><path d="M222.969 464.295q-.578.297-1.219.438-.64.156-1.344.156-2.5 0-3.828-1.64-1.312-1.657-1.312-4.782t1.312-4.781q1.328-1.656 3.828-1.656.703 0 1.344.156.656.156 1.219.453v2.719q-.625-.579-1.219-.844-.594-.281-1.219-.281-1.344 0-2.031 1.078-.688 1.062-.688 3.156 0 2.094.688 3.172.688 1.062 2.031 1.062.625 0 1.219-.265.594-.281 1.219-.86v2.72Z"/><text x="239" y="464.54" fill="#D9B8FF" font-family="Helvetica" font-size="17" textLength="53">region</text><rect width="227" height="310.758" x="139" y="7" fill="#3D176E" rx="2.5" ry="2.5" style="stroke:#000d19;stroke-width:.5"/><circle cx="207.75" cy="26.895" r="11" fill="#ADD1B2" style="stroke:#181818;stroke-width:1"/><path d="M210.719 32.535q-.578.297-1.219.438-.64.156-1.344.156-2.5 0-3.828-1.64-1.312-1.657-1.312-4.782t1.312-4.781q1.328-1.656 3.828-1.656.703 0 1.344.156.656.156 1.219.453v2.719q-.625-.578-1.219-.844-.594-.281-1.219-.281-1.344 0-2.031 1.078-.688 1.062-.688 3.156 0 2.094.688 3.172.688 1.062 2.031 1.062.625 0 1.219-.265.594-.281 1.219-.86v2.72Z"/><text x="233.25" y="32.78" fill="#D9B8FF" font-family="Helvetica" font-size="17" textLength="71">resource</text><path d="M140 46.789h225" style="stroke:#000d19;stroke-width:.5"/><text x="150" y="68.784" fill="#D9B8FF" font-family="sans-serif" font-size="14" font-weight="bold" textLength="29">age</text><text x="179" y="68.784" fill="#D9B8FF" font-family="sans-serif" font-size="14" textLength="66">: duration</text><text x="150" y="95.081" fill="#D9B8FF" font-family="sans-serif" font-size="14" font-weight="bold" textLength="43">atime</text><text x="193" y="95.081" fill="#D9B8FF" font-family="sans-serif" font-size="14" textLength="70">: datetime</text><text x="150" y="121.378" fill="#D9B8FF" font-family="sans-serif" font-size="14" font-weight="bold" textLength="43">ctime</text><text x="193" y="121.378" fill="#D9B8FF" font-family="sans-serif" font-size="14" textLength="70">: datetime</text><text x="150" y="147.675" fill="#D9B8FF" font-family="sans-serif" font-size="14" font-weight="bold" textLength="14">id</text><text x="164" y="147.675" fill="#D9B8FF" font-family="sans-serif" font-size="14" textLength="48">: string</text><text x="150" y="173.972" fill="#D9B8FF" font-family="sans-serif" font-size="14" font-weight="bold" textLength="33">kind</text><text x="183" y="173.972" fill="#D9B8FF" font-family="sans-serif" font-size="14" textLength="48">: string</text><text x="150" y="200.269" fill="#D9B8FF" font-family="sans-serif" font-size="14" font-weight="bold" textLength="90">last_access</text><text x="240" y="200.269" fill="#D9B8FF" font-family="sans-serif" font-size="14" textLength="66">: duration</text><text x="150" y="226.565" fill="#D9B8FF" font-family="sans-serif" font-size="14" font-weight="bold" textLength="90">last_update</text><text x="240" y="226.565" fill="#D9B8FF" font-family="sans-serif" font-size="14" textLength="66">: duration</text><text x="150" y="252.862" fill="#D9B8FF" font-family="sans-serif" font-size="14" font-weight="bold" textLength="48">mtime</text><text x="198" y="252.862" fill="#D9B8FF" font-family="sans-serif" font-size="14" textLength="70">: datetime</text><text x="150" y="279.159" fill="#D9B8FF" font-family="sans-serif" font-size="14" font-weight="bold" textLength="43">name</text><text x="193" y="279.159" fill="#D9B8FF" font-family="sans-serif" font-size="14" textLength="48">: string</text><text x="150" y="305.456" fill="#D9B8FF" font-family="sans-serif" font-size="14" font-weight="bold" textLength="34">tags</text><text x="184" y="305.456" fill="#D9B8FF" font-family="sans-serif" font-size="14" textLength="171">: dictionary[string, string]</text><rect width="145" height="39.789" x="51" y="599.55" fill="#3D176E" rx="2.5" ry="2.5" style="stroke:#000d19;stroke-width:.5"/><circle cx="66" cy="619.444" r="11" fill="#ADD1B2" style="stroke:#181818;stroke-width:1"/><path d="M68.969 625.085q-.578.297-1.219.438-.64.156-1.344.156-2.5 0-3.828-1.64-1.312-1.657-1.312-4.782t1.312-4.781q1.328-1.657 3.828-1.657.703 0 1.344.157.656.156 1.219.453v2.719q-.625-.579-1.219-.844-.594-.281-1.219-.281-1.344 0-2.031 1.078-.688 1.062-.688 3.156 0 2.094.688 3.172.688 1.062 2.031 1.062.625 0 1.219-.265.594-.282 1.219-.86v2.72Z"/><text x="85" y="625.33" fill="#D9B8FF" font-family="Helvetica" font-size="17" textLength="103">slack_region</text><rect width="163" height="39.789" x="7" y="438.76" fill="#3D176E" rx="2.5" ry="2.5" style="stroke:#000d19;stroke-width:.5"/><circle cx="22" cy="458.654" r="11" fill="#ADD1B2" style="stroke:#181818;stroke-width:1"/><path d="M24.969 464.295q-.578.297-1.219.438-.64.156-1.344.156-2.5 0-3.828-1.64-1.312-1.657-1.312-4.782t1.312-4.781q1.328-1.656 3.828-1.656.703 0 1.344.156.656.156 1.219.453v2.719q-.625-.579-1.219-.844-.594-.281-1.219-.281-1.343 0-2.031 1.078-.688 1.062-.688 3.156 0 2.094.688 3.172.688 1.062 2.031 1.062.625 0 1.219-.265.594-.281 1.219-.86v2.72Z"/><text x="41" y="464.54" fill="#D9B8FF" font-family="Helvetica" font-size="17" textLength="121">slack_resource</text><path fill="none" d="M252.5 338.65v100.03m-7-99.83 7-20 7 20h-14zm-21.72 156.16c-26.13 32.16-63.71 78.43-84.66 104.21m79.78-108.3 18.04-11.11-7.18 19.94-10.86-8.83z" style="stroke:#ffaf37;stroke-width:2"/><g fill="none"><path d="M97.19 499.1c7.03 31.89 16.63 75.41 22.07 100.12" style="stroke:#ffaf37;stroke-width:2"/><path d="m90.19 500.85 2.53-21.04 11.14 18.02-13.67 3.02z" style="stroke:#ffaf37;stroke-width:2"/></g></svg>
